packages/sources/icons/src/vitamix/truck-line.svg

<svg width="16" height="16" viewBox="0 0 16 16" fill="none" xmlns="http://www.w3.org/2000/svg">
<path d="M5.97663 12C5.89737 12.5562 5.6201 13.0651 5.19574 13.4333C4.77139 13.8015 4.22844 14.0042 3.66663 14.0042C3.10481 14.0042 2.56186 13.8015 2.13751 13.4333C1.71315 13.0651 1.43588 12.5562 1.35663 12H0.666626V4C0.666626 3.82319 0.736864 3.65362 0.861888 3.5286C0.986912 3.40357 1.15648 3.33334 1.33329 3.33334H10.6666C10.8434 3.33334 11.013 3.40357 11.138 3.5286C11.2631 3.65362 11.3333 3.82319 11.3333 4V5.33334H13.3333L15.3333 8.03734V12H13.9766C13.8974 12.5562 13.6201 13.0651 13.1957 13.4333C12.7714 13.8015 12.2284 14.0042 11.6666 14.0042C11.1048 14.0042 10.5619 13.8015 10.1375 13.4333C9.71315 13.0651 9.43588 12.5562 9.35663 12H5.97663ZM9.99996 4.66667H1.99996V10.0333C2.263 9.7648 2.58703 9.56379 2.94446 9.44741C3.3019 9.33104 3.68216 9.30274 4.05288 9.36493C4.4236 9.42712 4.77381 9.57796 5.0737 9.80461C5.37359 10.0313 5.61428 10.327 5.77529 10.6667H9.55796C9.66996 10.4313 9.81996 10.2173 9.99996 10.0333V4.66667ZM11.3333 8.66667H14V8.47667L12.6613 6.66667H11.3333V8.66667ZM11.6666 12.6667C11.9319 12.6667 12.1864 12.5613 12.374 12.3737C12.5616 12.1861 12.667 11.9316 12.667 11.6663C12.667 11.401 12.5616 11.1466 12.374 10.959C12.1864 10.7714 11.9319 10.666 11.6666 10.666C11.4013 10.666 11.1469 10.7714 10.9593 10.959C10.7717 11.1466 10.6663 11.401 10.6663 11.6663C10.6663 11.9316 10.7717 12.1861 10.9593 12.3737C11.1469 12.5613 11.4013 12.6667 11.6666 12.6667ZM4.66663 11.6667C4.66663 11.5353 4.64076 11.4053 4.59051 11.284C4.54025 11.1627 4.46659 11.0524 4.37373 10.9596C4.28087 10.8667 4.17063 10.793 4.04931 10.7428C3.92798 10.6925 3.79795 10.6667 3.66663 10.6667C3.5353 10.6667 3.40527 10.6925 3.28394 10.7428C3.16262 10.793 3.05238 10.8667 2.95952 10.9596C2.86666 11.0524 2.793 11.1627 2.74275 11.284C2.69249 11.4053 2.66663 11.5353 2.66663 11.6667C2.66663 11.9319 2.77198 12.1862 2.95952 12.3738C3.14706 12.5613 3.40141 12.6667 3.66663 12.6667C3.93184 12.6667 4.1862 12.5613 4.37373 12.3738C4.56127 12.1862 4.66663 11.9319 4.66663 11.6667Z" fill="#001018"/>
</svg>

<svg width="16" height="16" fill="none" xmlns="http://www.w3.org/2000/svg"><path d="M5.977 12a2.333 2.333 0 0 1-4.62 0h-.69V4a.667.667 0 0 1 .666-.667h9.334a.667.667 0 0 1 .666.667v1.333h2l2 2.704V12h-1.356a2.333 2.333 0 0 1-4.62 0h-3.38zM10 4.667H2v5.366a2.334 2.334 0 0 1 3.775.634h3.783a2.35 2.35 0 0 1 .442-.634V4.667zm1.333 4H14v-.19l-1.339-1.81h-1.328v2zm.334 4a1 1 0 1 0 0-2.001 1 1 0 0 0 0 2zm-7-1a1 1 0 1 0-2 0 1 1 0 0 0 2 0z" fill="#001018"/></svg>
